packages/kaspersky-hexa-ui-icons/src/iconsSVGs/64x42/FlagCn.svg

<svg width="64" height="42" viewBox="0 0 64 42" fill="none" xmlns="http://www.w3.org/2000/svg">
<g clip-path="url(#clip0_37941_2220)">
<rect width="64" height="42" rx="5" fill="white"/>
<rect width="64" height="42" fill="#F1361D"/>
<path fill-rule="evenodd" clip-rule="evenodd" d="M21.1526 6.51159L23.1863 6.85831L24.7116 8.24745L25.0584 6.21372L26.4475 4.68841L24.4138 4.34169L22.8884 2.95255L22.5417 4.98628L21.1526 6.51159ZM26.5999 13.6249L28.3622 12.5523L30.4248 12.6L29.3522 10.8376L29.3999 8.77513L27.6375 9.8477L25.575 9.8L26.6476 11.5623L26.5999 13.6249ZM24.2093 25.1388L22.4855 26.2723L22.4612 24.2093L21.3277 22.4855L23.3907 22.4612L25.1145 21.3278L25.1388 23.3907L26.2723 25.1145L24.2093 25.1388ZM25.7064 19.806L27.7569 19.5787L29.606 20.4936L29.3788 18.4431L30.2937 16.594L28.2431 16.8213L26.394 15.9064L26.6213 17.9569L25.7064 19.806Z" fill="#FFDC42"/>
<path fill-rule="evenodd" clip-rule="evenodd" d="M13.9999 17.276L9.06246 20.7957L10.8842 15.0123L6.01098 11.4042L12.0743 11.3496L13.9999 5.59998L15.9254 11.3496L21.9887 11.4042L17.1155 15.0123L18.9372 20.7957L13.9999 17.276Z" fill="#FFDC42"/>
</g>
<defs>
<clipPath id="clip0_37941_2220">
<rect width="64" height="42" rx="5" fill="white"/>
</clipPath>
</defs>
</svg>

<svg xmlns="http://www.w3.org/2000/svg" width="64" height="42" fill="none" viewBox="0 0 64 42"><g clip-path="url(#a)"><rect width="64" height="42" fill="#fff" rx="5"/><path fill="#f1361d" d="M0 0h64v42H0z"/><path fill="#ffdc42" fill-rule="evenodd" d="m21.153 6.512 2.034.347 1.525 1.389.347-2.034 1.389-1.525-2.034-.347-1.525-1.389-.347 2.034zm5.447 7.113 1.762-1.073 2.063.048-1.073-1.762.048-2.062-1.762 1.073-2.063-.049 1.073 1.762zm-2.391 11.514-1.724 1.134-.024-2.063-1.133-1.724 2.063-.024 1.724-1.133.024 2.063 1.134 1.724zm1.497-5.333 2.051-.227 1.849.915-.227-2.05.915-1.849-2.051.227-1.849-.915.227 2.051zM14 17.276l-4.937 3.52 1.822-5.783-4.873-3.608 6.063-.055L14 5.6l1.926 5.75 6.063.055-4.873 3.608 1.822 5.783z" clip-rule="evenodd"/></g><defs><clipPath id="a"><rect width="64" height="42" fill="#fff" rx="5"/></clipPath></defs></svg>
